!!!COM: Sousa, John Phillip
!!!CDT: 1854/11/05/-1932/04/08/
!!!OTL: The Liberty Bell March
!!!ODT: 1893///
!!!WIKI: http://en.wikipedia.org/wiki/Liberty_Bell_March
!!!ONB: Arrangement for keyboard
**kern	**kern	**dynam
*staff2	*staff1	*staff1/2
*Ipiano	*Ipiano	*Ipiano
*>[I,A,A1,A,A2,B,B1,B,B2,C,D,D1,D,D2]	*>[I,A,A1,A,A2,B,B1,B,B2,C,D,D1,D,D2]	*>[I,A,A1,A,A2,B,B1,B,B2,C,D,D1,D,D2]
*>norep[I,A,A2,B,B2,C,D,D2]	*>norep[I,A,A2,B,B2,C,D,D2]	*>norep[I,A,A2,B,B2,C,D,D2]
*>I	*>I	*>I
*clefF4	*clefG2	*clefG2
*k[b-]	*k[b-]	*k[b-]
*F:	*F:	*F:
*M6/8	*M6/8	*M6/8
*MM180	*MM180	*MM180
=1-	=1-	=1-
4F\	4f\ (4ff\	ff
8E\	8e/ 8ee/	.
4D\	4d/ 4dd/	.
8D-\	8d-/ 8dd-/	.
=2	=2	=2
4C/	4c/ 4cc/	.
8BBn/	8Bn/ 8bn/	.
4BB-/	4B-/ 4b-/	.
&(8AA/&)	8A/ 8a/)	.
=3	=3	=3
8GG'/L	8G/ 8g/L	.
8AA'/	8A/ 8a/	.
8BB-'/J	8B-/ 8b-/J	.
4AA/	4A/ 4a/	.
8GG/	8G/ 8g/	.
=4	=4	=4
4CC/ 4C/	4c/	.
8r	8r	.
4r	4r	.
8r	8cc\	.
=5!|:	=5!|:	=5!|:
*>A	*>A	*>A
8FF\L	8f/ 8a/L	p
8r	8r	.
8F\ 8A\ 8c\J	8f/ 8a/J	.
8F\ 8A\ 8c\L	8f/ 8a/L	.
8r	8g#/	.
8F\ 8A\ 8c\J	8f/ 8a/J	.
=6	=6	=6
8FF\L	8a\ 8ff\L	.
8r	8r	.
8F\ 8A\ 8c\J	8a\ 8cc\J	.
8F\ 8A\ 8c\L	8a/ 8cc/L	.
8r	8r	.
8F\ 8A\ 8c\J	8f/ 8a/J	.
=7	=7	=7
(4EE/ 4E/	4g/ 4b-/	<
8FF/ 8F/	8g/ 8b-/	.
4GG/ 4G/	4g/ 4b-/	.
8FF/ 8F/	8a\ 8cc\	.
=8	=8	=8
4EE/ 4E/	[4.b-\ [4.dd\	>
8DD/ 8D/	.	.
4CC/) 4C/	4b-\] 4dd\]	.
8r	8g/ 8b-/	.
=9	=9	=9
8CC/ 8C/L	8e/ 8g/L	p
8r	8r	.
8B-/ 8c/J	8e/ 8g/J	.
8B-\ 8c\L	8e/ 8g/L	.
8r	8f#/	.
8B-\ 8c\J	8e/ 8g/J	.
=10	=10	=10
8GG\ 8G\L	8b-\ 8ee\L	.
8r	8r	.
8B-\ 8c\J	8b-\ 8dd\J	.
8C\L	8b-\ 8dd\L	.
8r	8r	.
8B-\ 8c\J	8g\ 8b-\J	.
=11	=11	=11
(4FF/ 4F/	8f/ 8a/L	.
.	8r	.
8GG/ 8G/	8f/ 8a/J	<
4AA\ 4A\	8f/ 8a/L	.
.	8r	.
8GG/ 8G/	8g/ 8b-/J	.
=12	=12	=12
4FF/ 4F/	[4.a\ [4.cc\	>
8EE/ 8E/	.	.
4DD/ 4D/	4a\] 4cc\]	.
8CC/) 8C/	8a\ 8cc\	.
=13	=13	=13
8FF\ 8F\L	8f/ 8a/L	.
8r	8r	.
8F\ 8A\ 8c\J	8f/ 8a/J	.
8F\ 8A\ 8c\L	8f/ 8a/L	.
8r	8g#/	.
8F\ 8A\ 8c\J	8f/ 8a/J	.
=14	=14	=14
8FF\ 8F\L	8cc\ 8aa\L	.
8r	8r	.
8F\ 8A\ 8c\J	8a\ 8ff\J	.
8F\ 8A\ 8c\L	8a\ 8ff\L	.
8r	8r	.
8F\ 8A\ 8c\J	8a\ 8cc\J	.
=15	=15	=15
4DD/ (4D/	8g\ 8bn\L	.
.	8r	.
8EE/ 8E/	8gg\J	.
4FF/ 4F/	8b\ 8dd\ 8gg\L	.
.	8r	.
8EE/ 8E/	8gg\J	.
=16	=16	=16
4DD/ 4D/	[4.bn\ [4.dd\ [4.gg\	.
8CC/ 8C/	.	.
4BBBn/ 4BBn/	4b\] 4dd\] 4gg\]	.
8AAA/ 8AA/)	8ff\	.
=17	=17	=17
*	*^	*
8GGG/ 8GG/L	(8ee/L	4.g\ 4.cc\	f
8r	8r	.	.
8E/ 8G/ 8c/J	8gg/J	.	.
8E\ 8G\ 8c\L	8gg/L	4.g\ 4.cc\	.
8r	8ff#/	.	.
8E\ 8G\ 8c\J	8gg/J)	.	.
=18	=18	=18	=18
8GGG/ 8GG/L	(8dd/L	4.g\ 4.bn\	.
8r	8r	.	.
8F/ 8G/ 8Bn/J	8gg/J	.	.
8F\ 8G\ 8B\L	8gg/L	4.g\ 4.dd\	.
8r	8ff#/	.	.
8F\ 8G\ 8B\J	8gg/J)	.	.
*	*v	*v	*
=19	=19	=19
8CC^/ 8C^/L	8e^/ 8g^/ 8cc^/L	.
8r	8r	.
8GGG/ 8GG/J	8f/ 8g/ 8bn/J	.
8CC^/ 8C^/L	8e^/ 8g^/ 8cc^/L	.
8r	8r	.
8GGG/ 8GG/J	8f/ 8g/ 8b/J	.
=20	=20	=20
*>A1	*>A1	*>A1
4CC/ 4C/	4.e/ 4.g/ 4.cc/	.
8r	.	.
8C\ 8E\ 8G\ 8c\	4.e/ 4.g/ 4.cc/	.
8r	.	.
8r	.	.
=21:|!	=21:|!	=21:|!
*>A2	*>A2	*>A2
4CC/ 4C/	4.e/ 4.g/ 4.cc/	.
8r	.	.
4r	4.b-^\	.
8r	.	.
=22!|:	=22!|:	=22!|:
*>B	*>B	*>B
8F\L	(8a/L	p
8r	8g#/	.
8A\ 8c\J	8a/J	.
8C\L	4dd\	.
8r	.	.
8A\ 8c\J	8cc\	.
=23	=23	=23
8F\L	4.a/	.
8r	.	.
8A\ 8c\J	.	.
8AA\L	4.f/)	.
8r	.	.
8F\ 8c\J	.	.
=24	=24	=24
8BB-\L	(4.d/	.
8r	.	.
8F\ 8B-\J	.	.
8C\L	4.g/	.
8r	.	.
8E\ 8B-\J	.	.
=25	=25	=25
8FF\L	[4.f/	.
8r	.	.
8F\ 8A\ 8c\J	.	.
8F\ 8A\ 8c\L	4f/])	.
8r	.	.
8F\ 8A\ 8c\J	8f/	.
=26	=26	=26
*	*^	*
8E\L	8g/L	(4.g\	.
8r	8a/	.	.
8B-\ 8c\J	8b-/J	.	.
8C\L	4ee/	4.g\ 4.b-\	.
8r	.	.	.
8B-\ 8c\J	8dd/)	.	.
*	*v	*v	*
=27	=27	=27
8F\L	4.a\ 4.cc\	.
8r	.	.
8A\ 8c\J	.	.
8D\L	4.a-\ 4.cc\ 4.ff\	.
8r	.	.
8A-\ 8c\J	.	.
=28	=28	=28
8GG/L	4.g\ 4.cc\ 4.ee\	.
8r	.	.
(F#q/	.	.
8G/J)	.	.
8GG/L	4.f/ 4.bn/ 4.dd/	.
8r	.	.
(F#q/	.	.
8G/J)	.	.
=29	=29	=29
8C\L	[4.e/ [4.g/ [4.cc/	.
8r	.	.
8G\ 8c\J	.	.
8G\ 8c\L	4e/] 4g/] 4cc/]	.
8r	.	.
8G\ 8c\J	8cc\	.
=30	=30	=30
*	*^	*
8BB-\L	(8dd/L	2.f\	.
8r	8r	.	.
8B-\ 8d\J	8dd/J	.	.
.	eeq/	.	.
8B-\ 8d\L	8dd/L	.	.
8r	8cc#/	.	.
8B-\ 8d\J	8dd/J)	.	.
*	*v	*v	*
=31	=31	=31
8AA\L	4.a\ 4.ee\	.
8r	.	.
8A\ 8c#\J	.	.
8A\ 8c#\L	4.g\ 4.ee\	.
8r	.	.
8A\ 8c#\J	.	.
=32	=32	=32
*	*^	*
8D\L	4ff/	4.f\	<
8r	.	.	.
8A\ 8d\J	8ff/	.	.
*	*v	*v	*
.	(aaq/	.
*	*^	*
8BB-\L	(8gg/L)	4.dd\	.
8r	8ff/)	.	.
8B-\ 8d\J	8gg/J	.	.
=33	=33	=33	=33
8AA\L	[4.aa/	2.cc#\	.
8r	.	.	.
8A\ 8e\J	.	.	.
8A\ 8e\L	4aa/]	.	.
8r	.	.	.
8A\ 8e\J	8aa/	.	.
*	*v	*v	*
=34	=34	=34
.	(aaq/	.
8BB-\L	8dd\ 8gg\L)	.
8r	8r	.
8B-\ 8d\ 8g\J	8ff\J	.
8B-\ 8d\ 8g\L	8dd\L	>
8r	8r	.
8B-\ 8d\ 8g\J	8b-\J	.
=35	=35	=35
8C\L	4.a/	.
8r	.	.
8A\ 8c\J	.	.
8A\ 8c\L	4.f/	.
8r	.	.
8A\ 8c\J	.	.
=36	=36	=36
8E\L	4.g/	.
8r	.	.
8B-\ 8c\J	.	.
8C\L	4.e/	.
8r	.	.
8B-\ 8c\J	.	.
=37	=37	=37
*>B1	*>B1	*>B1
8F\ 8A\ 8c\L	[4.f/	.
8r	.	.
8F\ 8A\ 8c\J	.	.
4F\ 4A\ 4c\	4f/]	.
8r	8cc\	.
=38:|!	=38:|!	=38:|!
*>B2	*>B2	*>B2
8F\ 8A\ 8c\L	[4.f/	.
8r	.	.
8F\ 8A\ 8c\J	.	.
4F\ 4A\ 4c\	4f/]	.
8r	8f/	.
=39	=39	=39
*>C	*>C	*>C
*k[b-e-]	*k[b-e-]	*k[b-e-]
8BB-\L	4.d/ 4.b-/ (4.dd/	p
8r	.	.
8B-\J	.	.
8C\L	4.e-/ 4.b-/ 4.ee-/	.
8r	.	.
8B-\J	.	.
=40	=40	=40
8C#\L	4.en/ 4.b-/ 4.een/	.
8r	.	.
8B-\J	.	.
8D\L	4.f\ 4.b-\ 4.ff\)	.
8r	.	.
8B-\J	.	.
=41	=41	=41
8BB-\L	8f/ 8b-/ 8dd/L	.
8r	8r	.
8B-\ 8d\ 8f\J	8f/ 8b-/ 8dd/J	.
8B-\ 8d\ 8f\L	8f/ 8b-/ 8dd/L	.
8r	8r	.
8B-\ 8c#\ 8en\J	8en/ 8b-/ 8cc#/J	.
=42	=42	=42
8BB-\L	[4.f/ [4.b-/ [4.dd/	.
8r	.	.
8B-\ 8d\ 8f\J	.	.
8B-\ 8d\ 8f\L	4f/] 4b-/] 4dd/]	.
8r	.	.
8F\ 8B-\ 8d\J	8f/	p
=43	=43	=43
8BB-\L	4.d/ 4.b-/ (4.dd/	.
8r	.	.
8B-\J	.	.
8C\L	4.e-/ 4.b-/ 4.ee-/	.
8r	.	.
8B-\J	.	.
=44	=44	=44
8C#\L	4.en/ 4.b-/ 4.een/	.
8r	.	.
8B-\J	.	.
8D\L	4.f\ 4.b-\ 4.ff\)	.
8r	.	.
8B-\J	.	.
=45	=45	=45
8FF\L	8f\ 8cc\ 8ee-\L	.
8r	8r	.
8A\ 8c\ 8e-\J	8f\ 8cc\ 8ee-\J	.
8A\ 8c\ 8e-\L	8f/ 8cc/ 8ee-/L	.
8r	8r	.
8G#\ 8Bn\ 8d\J	8f/ 8bn/ 8dd/J	.
=46	=46	=46
8FF\L	[4.f\ [4.cc\ [4.ee-\	.
8r	.	.
8A\ 8c\ 8e-\J	.	.
8A\ 8c\ 8e-\L	4f\] 4cc\] 4ee-\]	.
8r	.	.
8A\ 8c\ 8e-\J	8dd\	.
=47	=47	=47
*	*^	*
8FF/L	(4.cc/	4r	.
8r	.	.	.
8F/ 8A/J	.	8c\ 8e-\ 8a\	.
8FF/L	4.bn/	4r	.
8r	.	.	.
8F/ 8G#/J	.	8Bn\ 8d\ 8g#\	.
*	*v	*v	*
=48	=48	=48
8FF/L	4f/ 4a/ 4cc/)	.
8r	.	.
8F/ 8A/J	(8f/	.
8FF/L	4en/	.
8r	.	.
8F/ 8A/J	8f/)	.
=49	=49	=49
*	*^	*
8BB-\L	(4.dd/	4r	.
8r	.	.	.
8F\ 8B-\J	.	8d\ 8f\ 8b-\	.
8BB-\L	4.cc#/	4r	.
8r	.	.	.
8B-\ 8c#\J	.	8en\ 8g\ 8b-\	.
*	*v	*v	*
=50	=50	=50
8BB-\L	4f/ 4b-/ 4dd/)	.
8r	.	.
8F\ 8B-\ 8d\J	(8f/	.
8BB-\L	4en/	.
8r	.	.
8F\ 8B-\ 8d\J	8f/)	.
=51	=51	=51
8C\L	4.a/	.
8r	.	.
8F\ 8A\ 8c\J	.	.
8C\L	4.cc\	.
8r	.	.
8F\ 8A\ 8c\J	.	.
=52	=52	=52
8C\L	(4b-\	.
8r	.	.
8En\ 8B-\ 8c\J	8cc\)	.
8C\L	(4g/	.
8r	.	.
8E\ 8B-\ 8c\J	8b-/)	.
=53	=53	=53
*	*^	*
4FF/	(4a/	4.c\ 4.e-\	f
8F\	8b-/)	.	.
(4FF/	(4g/	4.B-\ 4.e-\	.
8F\)	8a/)	.	.
=54	=54	=54	=54
4FF/	(4f/	4.A\ 4.e-\	.
8F\	8g/)	.	.
4FF/	(4e-/	4.A\ 4.c\	.
8F\	8f/)	.	.
*	*v	*v	*
=55	=55	=55
8BB-\L	4.d/ 4.b-/ (4.dd/	.
8r	.	.
8B-\J	.	.
8C\L	4.e-/ 4.b-/ 4.ee-/	.
8r	.	.
8B-\J	.	.
=56	=56	=56
8C#\L	4.en/ 4.b-/ 4.een/	.
8r	.	.
8B-\J	.	.
8D\L	4.f\ 4.b-\ 4.ff\)	.
8r	.	.
8B-\J	.	.
=57	=57	=57
8BB-\L	8f/ 8b-/ 8dd/L	.
8r	8r	.
8B-\ 8d\ 8f\J	8f/ 8b-/ 8dd/J	.
8B-\ 8d\ 8f\L	8f/ 8b-/ 8dd/L	.
8r	8r	.
8B-\ 8c#\ 8en\J	8en/ 8b-/ 8cc#/J	.
=58	=58	=58
8BB-\L	[4.f/ [4.b-/ [4.dd/	.
8r	.	.
8B-\ 8d\ 8f\J	.	.
8B-\ 8d\ 8f\L	4f/] 4b-/] 4dd/]	.
8r	.	.
8F\ 8B-\ 8d\J	8f/	.
=59	=59	=59
8BB-\L	4.d/ 4.b-/ (4.dd/	<
8r	.	.
8B-\J	.	.
8C\L	4.e-/ 4.b-/ 4.ee-/	.
8r	.	.
8B-\J	.	.
=60	=60	=60
8C#\L	4.en/ 4.b-/ 4.een/	.
8r	.	.
8B-\J	.	.
8D\L	4.f\ 4.b-\ 4.ff\)	.
8r	.	.
8B-\J	.	.
=61	=61	=61
8FF\L	8f\ 8cc\ 8ee-\L	.
8r	8r	.
8A\ 8c\ 8e-\J	8f\ 8cc\ 8ee-\J	.
8A\ 8c\ 8e-\L	8f/ 8cc/ 8ee-/L	.
8r	8r	.
8G#\ 8Bn\ 8d\J	8f/ 8bn/ 8dd/J	.
=62	=62	=62
8FF\L	[4.f\ [4.cc\ [4.ee-\	.
8r	.	.
8A\ 8c\ 8e-\J	.	.
8A\ 8c\ 8e-\L	4f\] 4cc\] 4ee-\]	.
8r	.	.
8A\ 8c\ 8e-\J	8dd\	.
=63	=63	=63
*	*^	*
8FF\L	(4.cc^/	4r	.
8r	.	.	.
8F\ 8A\ 8c\J	.	8e-\ 8a\	.
8FF\L	4.bn/	4r	.
8r	.	.	.
8F\ 8G#\ 8Bn\J	.	8d\ 8g#\	.
*	*v	*v	*
=64	=64	=64
8FF\L	4c/ 4f/ 4a/ 4cc/)	.
8r	.	.
8F\ 8A\ 8c\J	(8f/	.
8F\ 8A\ 8c\L	4en/	.
8r	.	.
8F\ 8A\ 8c\J	8f/)	.
=65	=65	=65
*	*^	*
8BB-\L	(4.dd/	4r	.
8r	.	.	.
8F\ 8B-\J	.	8d\ 8f\ 8b-\	.
8BB-\L	4.cc#/	4r	.
8r	.	.	.
8B-\ 8c#\J	.	8en\ 8g\ 8b-\	.
*	*v	*v	*
=66	=66	=66
8BB-\L	4d/ 4f/ 4b-/ 4dd/)	.
8r	.	.
8F\ 8B-\ 8d\J	(8f/	.
8F\ 8B-\ 8d\L	4en/	<
8r	.	.
8F\ 8B-\ 8d\J	8f/)	.
=67	=67	=67
8E-\L	(4.g/	f
8r	.	.
8G\ 8B-\ 8e-\J	.	.
8C\L	4.ee-\)	.
8r	.	.
8G\ 8B-\ 8e-\J	.	.
=68	=68	=68
8F\L	(4dd\	.
8r	.	.
8G\ 8B-\ 8d\J	8b-\	.
8FF\L	4cc\	.
8r	.	.
8F\ 8A\ 8e-\J	8a/)	.
=69	=69	=69
*	*^	*
8BB-\L	[2.b-/	4r	.
8r	.	.	.
8F\ 8B-\J	.	8d\ 8f\	.
8F\ 8B-\L	.	4d\ 4f\	.
8r	.	.	.
8F\ 8B-\J	.	8d\ 8f\	.
*	*v	*v	*
=70	=70	=70
4BB-\ 4B-\	4d/ 4f/ 4b-/]	ff
8BB-'\ 8B-'\	8r	.
8BB-'\ 8B-'\L	4r	.
8AA'\ 8A'\	.	.
8GG'\ 8G'\J	8r	.
=71!|:	=71!|:	=71!|:
*>D	*>D	*>D
(2.FF#/ 2.F#/	4r	.
.	8e-/ 8a/ 8ee-/	f
.	8e-/ 8a/ 8ee-/L	.
.	8e-/ 8a/ 8dd/	.
.	8e-/ 8a/ 8cc/J	.
=72	=72	=72
4GG/) 4G/	4.d/ 4.g/ 4.b-/	.
8BB-'\ 8B-'\	.	.
8BB-'\ 8B-'\L	4r	.
8AA'\ 8A'\	.	.
8GG'\ 8G'\J	8r	.
=73	=73	=73
(2.FF#/ 2.F#/	4r	.
.	8e-'/ 8a'/ 8ee-'/	.
.	8e-'/ 8a'/ 8ee-'/L	.
.	8e-'/ 8a'/ 8dd'/	.
.	8e-'/ 8a'/ 8cc'/J	.
=74	=74	=74
4GG/) 4G/	4d/ 4g/ 4b-/	.
8BB-\ 8B-\	8r	.
8BB-\ 8B-\L	4r	.
8AA\ 8A\	.	.
8GG\ 8G\J	8r	.
=75	=75	=75
(2.FF#/ 2.F#/	4r	.
.	8e-/ 8a/ 8ee-/	.
.	8e-/ 8a/ 8ee-/L	.
.	8e-/ 8a/ 8dd/	.
.	8e-/ 8a/ 8cc/J	.
=76	=76	=76
4GG/) 4G/	4d/ 4g/ 4b-/	.
8G\ 8B-\	8d/ 8g/ 8b-/	.
4E-\ 4G\	8e-/ 8g/ 8cc/L	.
.	8e-/ 8g/ 8b-/	.
8E-\ 8G\	8e-/ 8g/ 8cc/J	.
=77	=77	=77
4D\ 4F#\ 4A\	4d/ 4f#/ 4a/ 4dd/	.
8r	8r	.
4DD/ 4D/	4d/ 4f#/ 4a/ 4dd/	.
8r	8r	.
=78	=78	=78
4r	4dd\ 4ff#\ 4aa\ 4ddd\	ff
8D'\ 8d'\	8r	.
8D'\ 8d'\L	4r	.
8C'\ 8c'\	.	.
8BB-'\ 8B-'\J	8r	.
=79	=79	=79
2.AA\ (2.A\	4r	.
.	8g'\ 8ee-'\ 8gg'\	.
.	8g'\ 8ee-'\ 8gg'\L	.
.	8f'\ 8dd'\ 8ff'\	.
.	8e-'\ 8cc'\ 8ee-'\J	.
=80	=80	=80
4BB-\ 4B-\)	4d/ 4b-/ 4dd/	.
8D'\ 8d'\	8r	.
8D'\ 8d'\L	4r	.
8C'\ 8c'\	.	.
8BB-'\ 8B-'\J	8r	.
=81	=81	=81
2.AA\ (2.A\	4r	.
.	8g\ 8ee-\ 8gg\	.
.	8g\ 8ee-\ 8gg\L	.
.	8f\ 8dd\ 8ff\	.
.	8e-\ 8cc\ 8ee-\J	.
=82	=82	=82
4BB-\ 4B-\)	4d/ 4b-/ 4dd/	.
8D\ 8d\	8r	.
8D\ 8d\L	4r	.
8C\ 8c\	.	.
8BB-\ 8B-\J	8r	.
=83	=83	=83
2.AA\ (2.A\	4r	.
.	8g\ 8ee-\ 8gg\	.
.	8g\ 8ee-\ 8gg\L	.
.	8f\ 8dd\ 8ff\	.
.	8e-\ 8cc\ 8ee-\J	.
=84	=84	=84
4.BB-\ 4.B-\)	4d/ 4b-/ 4dd/	.
.	8d/ 8b-/ 8dd/	.
4.GG-/ 4.G-/	8en\ 8b-\ 8een\L	.
.	8dd\	.
.	8e\ 8b-\ 8ee\J	.
=85	=85	=85
4FF/ 4F/	4f\ 4a\ 4cc\ 4ff\	.
8r	8r	.
4FF/ 4F/	4f\ 4a\ 4cc\ 4ff\	.
8r	8r	.
=86	=86	=86
4r	4ff\ 4aa\ 4ccc\ 4fff\	ff
8FF/ 8F/	8r	.
8FF/ 8F/L	4r	.
8FF/ 8F/	.	.
8FF/ 8F/J	8r	.
=87	=87	=87
4GG-/ 4G-/	4r	.
8D-\ 8d-\	8r	.
4BB-\ 4B-\	4r	.
8GG-/ 8G-/	8en/ 8b-/ 8dd-/ 8een/	.
=88	=88	=88
4FF/ 4F/	4f\ 4a\ 4cc\ 4ff\	.
8C/	8ccc\	.
4FF/ 4F/	4.ff\ 4.fff\	.
8FF/ 8F/	.	.
=89	=89	=89
4GG-/ 4G-/	4r	.
8D-\ 8d-\	8r	.
4BB-\ 4B-\	4r	.
8GG-/ 8G-/	8en/ 8b-/ 8dd-/ 8een/	.
=90	=90	=90
4FF/ 4F/	4f\ 4a\ 4cc\ 4ff\	.
8C/	8ccc\	.
4FF/ 4F/	4.ff\ 4.fff\	.
8FF/ 8F/	.	.
=91	=91	=91
4BB-\ 4B-\	2.en/ 2.b-/ 2.dd-/ 2.een/	.
8AA\ 8A\	.	.
4BB-\ 4B-\	.	.
8GG-/ 8G-/	.	.
=92	=92	=92
4FF/ 4F/	2.f\ 2.b-\ 2.dd\ 2.ff\	.
8EEn/ 8En/	.	.
4FF/ 4F/	.	.
8DD/ 8D/	.	.
=93	=93	=93
4CC/ 4C/	2.g-\ 2.b-\ 2.ee-\ 2.gg-\	.
8DD/ 8D/	.	.
4EE-/ 4E-/	.	.
8CC/ 8C/	.	.
=94	=94	=94
4.FF/ 4.F/	4.f\ 4.a\ 4.ee-\ 4.ff\	.
4r	4.e-/ 4.ee-/	<
8r	.	.
=95	=95	=95
*	*^	*
8BB-\L	4.d/ 4.dd/	4r	ff
8r	.	.	.
8D\ 8B-\J	.	8f\ 8b-\	.
8C\L	4.e-/ 4.ee-/	4r	.
8r	.	.	.
8E-\ 8B-\J	.	8f\ 8b-\	.
=96	=96	=96	=96
8C#\L	4.en/ 4.een/	4r	.
8r	.	.	.
8En\ 8B-\J	.	8g\ 8b-\	.
8D\L	4.f/ 4.ff/	4r	.
8r	.	.	.
8F\ 8B-\J	.	8f\ 8b-\	.
*	*v	*v	*
=97	=97	=97
8BB-\L	8ff\ 8bb-\ 8ddd\L	.
8r	8r	.
8B-\ 8d\ 8f\J	8ff\ 8bb-\ 8ddd\J	.
8B-\ 8d\ 8f\L	8ff\ 8bb-\ 8ddd\L	.
8r	8r	.
8B-\ 8c#\ 8en\J	8een\ 8bb-\ 8ccc#\J	.
=98	=98	=98
8BB-\L	[4.ff\ [4.bb-\ [4.ddd\	.
8r	.	.
8B-\ 8d\ 8f\J	.	.
8B-\ 8d\ 8f\L	4ff\] 4bb-\] 4ddd\]	.
8r	.	.
8B-\ 8d\J	8f\ 8ff\	.
=99	=99	=99
*	*^	*
8BB-\L	4.d/ 4.dd/	4r	.
8r	.	.	.
8D\ 8B-\J	.	8f\ 8b-\	.
8C\L	4.e-/ 4.ee-/	4r	.
8r	.	.	.
8E-\ 8B-\J	.	8f\ 8b-\	.
=100	=100	=100	=100
8C#\L	4.en/ 4.een/	4r	.
8r	.	.	.
8En\ 8B-\J	.	8g\ 8b-\	.
8D\L	4.f/ 4.ff/	4r	.
8r	.	.	.
8F\ 8B-\J	.	8f\ 8b-\	.
*	*v	*v	*
=101	=101	=101
8C\L	8ee-\ 8aa\ 8eee-\L	.
8r	8r	.
8A\ 8c\ 8e-\J	8ee-\ 8aa\ 8eee-\J	.
8A\ 8c\ 8e-\L	8ee-\ 8aa\ 8eee-\L	.
8r	8r	.
8G#\ 8Bn\ 8d\J	8dd\ 8gg#\ 8ddd\J	.
=102	=102	=102
8FF\L	[4.ee-\ [4.aa\ [4.eee-\	.
8r	.	.
8A\ 8c\ 8e-\J	.	.
8A\ 8c\ 8e-\L	4ee-\] 4aa\] 4eee-\]	.
8r	.	.
8A\ 8c\ 8e-\J	8dd\ 8ddd\	.
=103	=103	=103
*	*^	*
8FF/L	4r	4.cc\ 4.ccc\	.
8r	.	.	.
8F/ 8A/J	8ee-/ 8aa/	.	.
8FF/L	4r	4.bn\ 4.bbn\	.
8r	.	.	.
8F/ 8G#/J	8dd/ 8gg#/	.	.
*	*v	*v	*
=104	=104	=104
4FF/	4cc\ 4ff\ 4aa\ 4ccc\	.
(8FF/ 8F/	8f\ (8ff\	.
4EEn/ 4En/	4en/ 4een/	.
8FF/) 8F/	8f\ 8ff\)	.
=105	=105	=105
*	*^	*
8BB-\L	4r	4.dd\ 4.ddd\	.
8r	.	.	.
8F\ 8B-\J	8ff/ 8bb-/	.	.
8BB-\L	4r	4.cc#\ 4.ccc#\	.
8r	.	.	.
8B-\ 8c#\J	8een/ 8bb-/	.	.
*	*v	*v	*
=106	=106	=106
4BB-/	4ff\ 4bb-\ 4ddd\	.
(8FF/ 8F/	8f\ (8ff\	.
4EEn/ 4En/	4en/ 4een/	.
8FF/) 8F/	8f\ 8ff\)	.
=107	=107	=107
8C\L	4.a\ 4.aa\	.
8r	.	.
8F\ 8A\ 8c\J	.	.
8C\L	4.cc\ 4.ccc\	.
8r	.	.
8F\ 8A\ 8c\J	.	.
=108	=108	=108
8C\L	4b-\ (4bb-\	.
8r	.	.
8En\ 8B-\ 8c\J	8cc\ 8ccc\)	.
8C\L	4g\ (4gg\	.
8r	.	.
8E\ 8B-\ 8c\J	8b-\ 8bb-\)	.
=109	=109	=109
*	*^	*
(4FF/	(4aa/	4.cc\ 4.ee-\	.
8F\)	8bb-/)	.	.
(4FF/	(4gg/	4.b-\ 4.ee-\	.
8F\)	8aa/)	.	.
=110	=110	=110	=110
(4FF/	(4ff/	4.ee-\	.
8F\)	8gg/)	.	.
(4FF/	(4ee-/	4.a\ 4.cc\	.
8F\)	8ff/)	.	.
=111	=111	=111	=111
8BB-\L	4.d/ 4.dd/	4r	.
8r	.	.	.
8D\ 8B-\J	.	8f\ 8b-\	.
8C\L	4.e-/ 4.ee-/	4r	.
8r	.	.	.
8E-\ 8B-\J	.	8f\ 8b-\	.
=112	=112	=112	=112
8C#\L	4.en/ 4.een/	4r	.
8r	.	.	.
8En\ 8B-\J	.	8g\ 8b-\	.
8D\L	4.f/ 4.ff/	4r	.
8r	.	.	.
8F\ 8B-\J	.	8f\ 8b-\	.
*	*v	*v	*
=113	=113	=113
8BB-\L	8ff\ 8bb-\ 8ddd\L	fff
8r	8r	.
8B-\ 8d\ 8f\J	8ff\ 8bb-\ 8ddd\J	.
8B-\ 8d\ 8f\L	8ff\ 8bb-\ 8ddd\L	.
8r	8r	.
8B-\ 8c#\ 8en\J	8een\ 8bb-\ 8ccc#\J	.
=114	=114	=114
8BB-\L	[4.ff\ [4.bb-\ [4.ddd\	.
8r	.	.
8B-\ 8d\ 8f\J	.	.
8B-\ 8d\ 8f\L	4ff\] 4bb-\] 4ddd\]	.
8r	.	.
8B-\ 8d\J	8ff\	.
=115	=115	=115
*	*^	*
8BB-\L	4.d/ 4.dd/	4r	.
8r	.	.	.
8D\ 8B-\J	.	8f\ 8b-\	.
8C\L	4.e-/ 4.ee-/	4r	.
8r	.	.	.
8E-\ 8B-\J	.	8f\ 8b-\	.
=116	=116	=116	=116
8C#\L	4.en/ 4.een/	4r	.
8r	.	.	.
8En\ 8B-\J	.	8g\ 8b-\	.
8D\L	4.f/ 4.ff/	4r	.
8r	.	.	.
8F\ 8B-\J	.	8f\ 8b-\	.
*	*v	*v	*
=117	=117	=117
8C\L	8ee-\ 8aa\ 8eee-\L	f
8r	8r	.
8A\ 8c\ 8e-\J	8ee-\ 8aa\ 8eee-\J	.
8A\ 8c\ 8e-\L	8ee-\ 8aa\ 8eee-\L	.
8r	8r	.
8G#\ 8Bn\ 8d\J	8dd\ 8gg#\ 8ddd\J	.
=118	=118	=118
8FF\L	[4.ee-\ [4.aa\ [4.eee-\	.
8r	.	.
8A\ 8c\ 8e-\J	.	.
8A\ 8c\ 8e-\L	4ee-\] 4aa\] 4eee-\]	.
8r	.	.
8A\ 8c\ 8e-\J	8dd\ 8ddd\	.
=119	=119	=119
*	*^	*
8FF/L	4r	4.cc\ 4.ccc\	.
8r	.	.	.
8F/ 8A/J	8ee-/ 8aa/	.	.
8FF/L	4r	4.bn\ 4.bbn\	.
8r	.	.	.
8F/ 8G#/J	8dd/ 8gg#/	.	.
*	*v	*v	*
=120	=120	=120
4FF/ 4F/	4cc\ 4ff\ 4aa\ 4ccc\	.
(8FF/ 8F/	8f\ (8ff\	.
4EEn/ 4En/	4en/ 4een/	.
8FF/) 8F/	8f\ 8ff\)	.
=121	=121	=121
*	*^	*
8BB-\L	4r	4.dd\ 4.ddd\	.
8r	.	.	.
8F\ 8B-\J	8ff/ 8bb-/	.	.
8BB-\L	4r	4.cc#\ 4.ccc#\	.
8r	.	.	.
8B-\ 8c#\J	8een/ 8bb-/	.	.
*	*v	*v	*
=122	=122	=122
4BB-/	4dd\ 4ff\ 4bb-\ 4ddd\	.
(8FF/ 8F/	8f\ (8ff\	.
4EEn/ 4En/	4en/ 4een/	.
8FF/) 8F/	8f\ 8ff\)	.
=123	=123	=123
8E-\L	4.g\ 4.gg\	.
8r	.	.
8G\ 8B-\ 8e-\J	.	.
8C\L	4.ee-\ 4.eee-\	.
8r	.	.
8G\ 8B-\ 8e-\J	.	.
=124	=124	=124
8F\L	4dd\ 4ddd\	.
8r	.	.
8B-\ 8d\J	8b-\ 8bb-\	.
8FF\L	4cc\ 4ccc\	.
8r	.	.
8F\ 8A\ 8c\ 8e-\J	8a\ 8aa\	.
=125	=125	=125
*>D1	*>D1	*>D1
*	*^	*
4BB-/	4r	[2.b-\ [2.bb-\	.
8BB-\ 8B-\	8dd/ 8ff/	.	.
4FF/ 4F/	4dd/ 4ff/	.	.
8DD/ 8D/	8dd/ 8ff/	.	.
*	*v	*v	*
=126	=126	=126
4BBB-/ 4BB-/	4b-\] 4dd\ 4ff\ 4bb-\]	.
8BB-'\ 8B-'\	8r	.
8BB-'\ 8B-'\L	4r	.
8AA'\ 8A'\	.	.
8GG'\ 8G'\J	8r	.
=127:|!	=127:|!	=127:|!
*>D2	*>D2	*>D2
*	*^	*
4BB-/	4r	[2.b-\ [2.bb-\	.
8BB-\ 8B-\	8dd/ 8ff/	.	.
4FF/ 4F/	4dd/ 4ff/	.	.
8DD/ 8D/	8dd/ 8ff/	.	.
*	*v	*v	*
=128	=128	=128
4BBB-/ 4BB-/	4b-\] 4dd\ 4ff\ 4bb-\]	.
8r	8r	.
4BBB-/ 4BB-/	4b-\ 4dd\ 4ff\ 4bb-\	.
8r	8r	.
==	==	==
*-	*-	*-
!!!ENC: Craig Stuart Sapp
!!!END: 2006/06/16/
